!!!COM: Robert Schumann
!!!CNT: Deutscher
!!!TXO: Deutsche 
!!!OTL: In der Fremde
!!!OPR: Liederkreis
!!!OPS: Opus 39
!!!ONM: No. 1
!!!LYR: Eichendorff
!!!ENC: Brian Bice
!!!YOR: Sa2mtliche Lieder, vol. 1, C.F. Peters
!!!ODT: 1840/
!!NB: Vocal melody and text only encoded.
**kern	**silbe
*clefG2	*
*k[f#c#g#]	*
*M4/4	*
=1	=1
2r	.
4r	.
{8f#	{Aus
8g#	der
=2	=2
4.a	Hei-
8a	-mat
4a	hin-
8g#	-ter
8f#	den
=3	=3
4.g#	Blit-
8g#	-zen
4g#}	rot}
{4g#	{da
=4	=4
4a	kom-
8a	-men
8a	die
(g#q	Wol-
aq	|
4b	|
8a)	|
8g#	-ken
=5	=5
2f#}	her,}
4r	.
{8f#	{a-
8g#	-ber
=6	=6
4a	Va-
8a	-ter
8a	und
4a	Mut-
8g#	-ter
8f#	sind
=7	=7
4.a	lan-
8g#	-ge
4g#}	tot,}
{4g#	{es
=8	=8
4a	kennt
8a	mich
8a	dort
(g#q	kei-
aq	|
4b	|
8a)	|
8g#	-ner
=9	=9
2f#}	mehr.}
4r	.
8r	.
{8f#	{Wie
=10	=10
4b	bald,
8f#	ach
8f#	wie
4b	bald
8e	kommt
8e	die
=11	=11
4.cc#	stil-
8b	-le
4b}	Zeit,}
{4b	{da
=12	=12
2cc#	ru-
4.b	-he
8b	ich
=13	=13
2.ee}	auch,}
{4dd	{da
=14	=14
2cc#	ru-
4.b	-he
8b	ich
=15	=15
2a#}	auch,}
4r	.
{(8b	{und
8cc#)	|
=16	=16
4.dd	u2-
8dd	-ber
4dd	mir
8cc#	rauscht
8b	die
=17	=17
2dd	scho2-
2cc#	-ne
=18	=18
2dd	Wald-
4.cc#	-ein-
8cc#	-sam-
=19	=19
(2b	-keit,
4an)}	|}
8r	.
{8an	{die
=20	=20
4.a	scho2-
8a	-ne
4g#	Wald-
8g#	-ein-
8g#	-sam-
=21	=21
2f#}	-keit,}
4r	.
{4f#	{und
=22	=22
4.gn	kei-
8gn	-ner
(gnq	kennt
aq	|
4b)	|
8a	mich
8g#	mehr
=23	=23
2f#}	hier,}
4r	.
{4f#	{und
=24	=24
4.gn	kei-
8gn	-ner
4ddn	kennt
8b	mich
8gn	mehr
=25	=25
2f#}	hier.}
2r	.
*-	*-
